X: 72
T: Maguinnis' Delight
M: C|
L: 1/8
R: reel
B: NEFR #72
B: Ryan's Mammoth Collection #324
F: http://www.ibiblio.org/fiddlers/MAE_MAIB.htm
Z: 2012 John Chambers <jc:trillian.mit.edu>
N: Based on Ray Davies' transcription in the Ryan/Cole project, heavily modified for the NEFR version.
K: F
cB \
| AF cF dF cF | AF cF B2 ((3dcB) | AF cF dF cF | BG GA B2 ((3dcB) |
| AF cF dF cF | AF cF B2 ((3dcB) | Ac fa gf cA | BA GA Bc de |]
| f2 fe fc Ac | f2 fe ((3fga) ge | f2 fe fc Ac | BG GA Bc de |
| f2 fe fc Ac | f2 eg fg ag | f2 fe fc Ac | BG GA B2 |]
